X:47
T:Jerry's Pipe Jig
M:6/8
L:1/8
F:http://blackrosetheband.googlepages.com/ABCTUNES.ABC May 2009
C:Jerry Holland
R:Jig
K:Am
"Am"edB AAA|eee e^fg|edB cAc|"G"BGB Bcd|\
"Am"edB AAA|ABd e2^f|"C"gab age|1 "G"dBd eg^f:|2 "G"dBd egg||
|:"Am"eaa eaa|"D"dBd "G"egg|"Am"eag "D"^f3|"G"ege "Em"dBd|\
"Am"eaa eaa|"D"dBd "G"egg| |1 "Am"eag "D"^f2d|"Em"edB "Am"BAA :|2  "G"g^fe dBd|"Em"egd Bcd||
